X:164
T:Mug of Brown Ale, The
C:Joe Buchanan's Scottish Tome - Page 263.2
I:263 2
Z:Carl Allison
R:Jig
L:1/8
M:6/8
K:C
G | EAA ABc | edB {cd}c2 A | BGG dGG | Bdc BAG |
EAA ABc | ede a2 g | edc Bcd | ecA A2 :|
^f | ge^f a2 | ge^f g2 c | BGG | Bdc BAG |
ge^f g2 a | ge^f g2 ^f | edc Bcd | ecA A2 ^f |
ge^f g2 a | ge^f g2 c | BGG dGG | Bdc BAG |
EAA ABc | ede a2 g | edc Bcd | ecA A2 |]

